src/components/icons/arrows-fullscreen.svg

<svg width="1em" height="1em" viewBox="0 0 30 30" fill="none" xmlns="http://www.w3.org/2000/svg">
<path fill-rule="evenodd" clip-rule="evenodd" d="M7.17807 22.8217C6.81195 22.4556 6.21836 22.4556 5.85224 22.8217L1.92188 26.7521L1.92188 21.5625C1.92188 21.0447 1.50214 20.625 0.984377 20.625C0.46661 20.625 0.0468753 21.0447 0.0468759 21.5625L0.046875 29.0154C0.046875 29.5332 0.46661 29.9529 0.984376 29.9529L8.43719 29.9529C8.95496 29.9529 9.37469 29.5332 9.37469 29.0154C9.37469 28.4976 8.95496 28.0779 8.43719 28.0779L3.2477 28.0779L7.17807 24.1475C7.54418 23.7814 7.54418 23.1878 7.17807 22.8217Z" fill="currentColor"/>
<path fill-rule="evenodd" clip-rule="evenodd" d="M22.8219 22.8217C23.1881 22.4556 23.7816 22.4556 24.1478 22.8217L28.0781 26.7521L28.0781 21.5625C28.0781 21.0447 28.4979 20.625 29.0156 20.625C29.5334 20.625 29.9531 21.0447 29.9531 21.5625L29.9531 29.0154C29.9531 29.5332 29.5334 29.9529 29.0156 29.9529L21.5628 29.9529C21.045 29.9529 20.6253 29.5332 20.6253 29.0154C20.6253 28.4976 21.045 28.0779 21.5628 28.0779L26.7523 28.0779L22.8219 24.1475C22.4558 23.7814 22.4558 23.1878 22.8219 22.8217Z" fill="currentColor"/>
<path fill-rule="evenodd" clip-rule="evenodd" d="M22.8219 7.17878C23.1881 7.54489 23.7816 7.54489 24.1478 7.17878L28.0781 3.24841L28.0781 8.43799C28.0781 8.95575 28.4979 9.37549 29.0156 9.37549C29.5334 9.37549 29.9531 8.95575 29.9531 8.43799L29.9531 0.985086C29.9531 0.467319 29.5334 0.0475846 29.0156 0.0475846L21.5628 0.04759C21.045 0.0475897 20.6253 0.467324 20.6253 0.985091C20.6253 1.50286 21.045 1.92259 21.5628 1.92259L26.7523 1.92259L22.8219 5.85295C22.4558 6.21907 22.4558 6.81266 22.8219 7.17878Z" fill="currentColor"/>
<path fill-rule="evenodd" clip-rule="evenodd" d="M7.13119 7.13141C6.76507 7.49753 6.17148 7.49753 5.80537 7.13141L1.875 3.20105L1.875 8.39062C1.875 8.90839 1.45527 9.32813 0.937502 9.32812C0.419735 9.32813 0 8.90839 6.32203e-07 8.39062L0 0.937722C0 0.419956 0.419735 0.000221315 0.937501 0.000221315L8.39032 0.000226679C8.90808 0.000226403 9.32782 0.419961 9.32782 0.937728C9.32782 1.45549 8.90808 1.87523 8.39032 1.87523L3.20083 1.87522L7.13119 5.80559C7.49731 6.1717 7.49731 6.7653 7.13119 7.13141Z" fill="currentColor"/>
<mask id="path-5-outside-1_559_115955" maskUnits="userSpaceOnUse" x="14.0518" y="15.3403" width="9" height="11" fill="currentColor">
<rect fill="white" x="14.0518" y="15.3403" width="9" height="11"/>
<path fill-rule="evenodd" clip-rule="evenodd" d="M15.0526 20.2644L15.053 20.2647L21.8925 16.3403L15.0518 25.29V20.2649L15.0526 20.2644ZM20.5624 17.5048L15.2291 20.5649V24.4823L20.5624 17.5048Z"/>
</mask>
<path fill-rule="evenodd" clip-rule="evenodd" d="M15.0526 20.2644L15.053 20.2647L21.8925 16.3403L15.0518 25.29V20.2649L15.0526 20.2644ZM20.5624 17.5048L15.2291 20.5649V24.4823L20.5624 17.5048Z" fill="currentColor"/>
<path d="M15.053 20.2647L14.9445 20.4536C15.0117 20.4921 15.0942 20.4921 15.1614 20.4536L15.053 20.2647ZM15.0526 20.2644L15.161 20.0755C15.0938 20.037 15.0113 20.037 14.9441 20.0755L15.0526 20.2644ZM21.8925 16.3403L22.0655 16.4726C22.1285 16.3902 22.1247 16.2748 22.0563 16.1968C21.9879 16.1188 21.874 16.0998 21.7841 16.1514L21.8925 16.3403ZM15.0518 25.29H14.8339C14.8339 25.3833 14.8935 25.4664 14.9819 25.4963C15.0704 25.5262 15.1681 25.4964 15.2248 25.4222L15.0518 25.29ZM15.0518 20.2649L14.9433 20.076C14.8757 20.1148 14.8339 20.1869 14.8339 20.2649H15.0518ZM15.2291 20.5649L15.1207 20.376C15.053 20.4148 15.0113 20.4869 15.0113 20.5649H15.2291ZM20.5624 17.5048L20.7355 17.6371C20.7985 17.5547 20.7946 17.4393 20.7262 17.3613C20.6579 17.2832 20.544 17.2643 20.454 17.3159L20.5624 17.5048ZM15.2291 24.4823H15.0113C15.0113 24.5757 15.0708 24.6587 15.1593 24.6886C15.2478 24.7186 15.3455 24.6888 15.4022 24.6146L15.2291 24.4823ZM15.1614 20.0757L15.161 20.0755L14.9441 20.4534L14.9445 20.4536L15.1614 20.0757ZM21.7841 16.1514L14.9445 20.0757L15.1614 20.4536L22.0009 16.5293L21.7841 16.1514ZM21.7194 16.2081L14.8787 25.1577L15.2248 25.4222L22.0655 16.4726L21.7194 16.2081ZM15.2696 25.29V20.2649H14.8339V25.29H15.2696ZM15.1602 20.4538L15.161 20.4534L14.9441 20.0755L14.9433 20.076L15.1602 20.4538ZM15.3375 20.7538L20.6708 17.6938L20.454 17.3159L15.1207 20.376L15.3375 20.7538ZM15.447 24.4823V20.5649H15.0113V24.4823H15.447ZM20.3894 17.3725L15.0561 24.35L15.4022 24.6146L20.7355 17.6371L20.3894 17.3725Z" fill="currentColor" mask="url(#path-5-outside-1_559_115955)"/>
<mask id="path-7-outside-2_559_115955" maskUnits="userSpaceOnUse" x="7.21484" y="15.3457" width="9" height="11" fill="currentColor">
<rect fill="white" x="7.21484" y="15.3457" width="9" height="11"/>
<path fill-rule="evenodd" clip-rule="evenodd" d="M8.21484 16.3457L15.0462 25.2831V20.2653L8.21484 16.3457ZM9.54169 17.5054L14.8775 24.4862V20.5669L14.8753 20.5656L9.54169 17.5054Z"/>
</mask>
<path fill-rule="evenodd" clip-rule="evenodd" d="M8.21484 16.3457L15.0462 25.2831V20.2653L8.21484 16.3457ZM9.54169 17.5054L14.8775 24.4862V20.5669L14.8753 20.5656L9.54169 17.5054Z" fill="currentColor"/>
<path d="M8.21484 16.3457L8.32325 16.1568C8.23328 16.1051 8.11938 16.1241 8.05102 16.2021C7.98265 16.2802 7.97879 16.3956 8.04178 16.478L8.21484 16.3457ZM15.0462 25.2831L14.8731 25.4154C14.9298 25.4896 15.0275 25.5193 15.116 25.4894C15.2045 25.4595 15.264 25.3765 15.264 25.2831H15.0462ZM15.0462 20.2653H15.264C15.264 20.1873 15.2223 20.1152 15.1546 20.0764L15.0462 20.2653ZM14.8775 24.4862L14.7045 24.6185C14.7612 24.6927 14.8589 24.7225 14.9474 24.6925C15.0358 24.6626 15.0954 24.5796 15.0954 24.4862H14.8775ZM9.54169 17.5054L9.6501 17.3164C9.56012 17.2648 9.44623 17.2838 9.37786 17.3618C9.3095 17.4398 9.30564 17.5552 9.36863 17.6376L9.54169 17.5054ZM14.8775 20.5669H15.0954C15.0954 20.4886 15.0533 20.4163 14.9853 20.3776L14.8775 20.5669ZM14.8753 20.5656L14.7669 20.7546L14.7675 20.7549L14.8753 20.5656ZM8.04178 16.478L14.8731 25.4154L15.2192 25.1508L8.3879 16.2134L8.04178 16.478ZM15.264 25.2831V20.2653H14.8284V25.2831H15.264ZM15.1546 20.0764L8.32325 16.1568L8.10644 16.5346L14.9378 20.4543L15.1546 20.0764ZM15.0506 24.3539L9.71475 17.3731L9.36863 17.6376L14.7045 24.6185L15.0506 24.3539ZM14.6597 20.5669V24.4862H15.0954V20.5669H14.6597ZM14.7675 20.7549L14.7698 20.7562L14.9853 20.3776L14.983 20.3763L14.7675 20.7549ZM9.43329 17.6943L14.7669 20.7546L14.9837 20.3767L9.6501 17.3164L9.43329 17.6943Z" fill="currentColor" mask="url(#path-7-outside-2_559_115955)"/>
<mask id="path-9-outside-3_559_115955" maskUnits="userSpaceOnUse" x="7.21484" y="3.71338" width="9" height="12" fill="currentColor">
<rect fill="white" x="7.21484" y="3.71338" width="9" height="12"/>
<path fill-rule="evenodd" clip-rule="evenodd" d="M15.054 4.71338V12.3006L8.21484 15.3009L15.054 4.71338ZM14.8797 12.1879V5.63567L8.97348 14.7789L14.8797 12.1879Z"/>
</mask>
<path fill-rule="evenodd" clip-rule="evenodd" d="M15.054 4.71338V12.3006L8.21484 15.3009L15.054 4.71338ZM14.8797 12.1879V5.63567L8.97348 14.7789L14.8797 12.1879Z" fill="currentColor"/>
<path d="M15.054 4.71338H15.2719C15.2719 4.61681 15.2083 4.53176 15.1156 4.50445C15.023 4.47713 14.9235 4.51407 14.8711 4.59519L15.054 4.71338ZM15.054 12.3006L15.1415 12.5001C15.2207 12.4654 15.2719 12.3871 15.2719 12.3006H15.054ZM8.21484 15.3009L8.03187 15.1827C7.9797 15.2635 7.98666 15.3689 8.04899 15.4421C8.11133 15.5153 8.2143 15.539 8.30235 15.5004L8.21484 15.3009ZM14.8797 5.63567H15.0976C15.0976 5.5391 15.034 5.45405 14.9413 5.42674C14.8487 5.39942 14.7492 5.43635 14.6968 5.51747L14.8797 5.63567ZM14.8797 12.1879L14.9672 12.3874C15.0464 12.3527 15.0976 12.2744 15.0976 12.1879H14.8797ZM8.97348 14.7789L8.79051 14.6607C8.73833 14.7415 8.74529 14.8469 8.80762 14.9201C8.86996 14.9934 8.97293 15.017 9.06098 14.9784L8.97348 14.7789ZM14.8362 4.71338V12.3006H15.2719V4.71338H14.8362ZM14.9665 12.1012L8.12734 15.1014L8.30235 15.5004L15.1415 12.5001L14.9665 12.1012ZM14.8711 4.59519L8.03187 15.1827L8.39781 15.4191L15.237 4.83157L14.8711 4.59519ZM14.6619 5.63567V12.1879H15.0976V5.63567H14.6619ZM9.15645 14.8971L15.0627 5.75386L14.6968 5.51747L8.79051 14.6607L9.15645 14.8971ZM14.7922 11.9885L8.88597 14.5794L9.06098 14.9784L14.9672 12.3874L14.7922 11.9885Z" fill="currentColor" mask="url(#path-9-outside-3_559_115955)"/>
<mask id="path-11-outside-4_559_115955" maskUnits="userSpaceOnUse" x="7.21289" y="11.3008" width="9" height="9" fill="currentColor">
<rect fill="white" x="7.21289" y="11.3008" width="9" height="9"/>
<path fill-rule="evenodd" clip-rule="evenodd" d="M8.21665 15.305L15.054 19.1425V12.3008L8.21522 15.3003L8.21451 15.3014L8.21289 15.3021L8.217 15.3044L8.21665 15.305ZM8.79507 15.2366L14.8797 18.6517V12.5679L8.79507 15.2366Z"/>
</mask>
<path fill-rule="evenodd" clip-rule="evenodd" d="M8.21665 15.305L15.054 19.1425V12.3008L8.21522 15.3003L8.21451 15.3014L8.21289 15.3021L8.217 15.3044L8.21665 15.305ZM8.79507 15.2366L14.8797 18.6517V12.5679L8.79507 15.2366Z" fill="currentColor"/>
<path d="M15.054 19.1425L14.9474 19.3325C15.0148 19.3703 15.0973 19.3696 15.164 19.3305C15.2308 19.2914 15.2718 19.2199 15.2718 19.1425H15.054ZM8.21665 15.305L8.03367 15.1868C8.00105 15.2373 7.99076 15.299 8.00522 15.3574C8.01968 15.4157 8.05761 15.4655 8.11004 15.4949L8.21665 15.305ZM15.054 12.3008H15.2718C15.2718 12.2272 15.2347 12.1587 15.1731 12.1184C15.1115 12.0782 15.0338 12.0718 14.9665 12.1013L15.054 12.3008ZM8.21522 15.3003L8.12773 15.1008C8.08862 15.118 8.05542 15.1462 8.03225 15.1821L8.21522 15.3003ZM8.21451 15.3014L8.30201 15.5009C8.34111 15.4837 8.37431 15.4555 8.39748 15.4196L8.21451 15.3014ZM8.21289 15.3021L8.12539 15.1026C8.04974 15.1358 7.99937 15.2089 7.99533 15.2914C7.99128 15.374 8.03425 15.4516 8.10628 15.4921L8.21289 15.3021ZM8.217 15.3044L8.39998 15.4226C8.43259 15.3721 8.44289 15.3104 8.42843 15.252C8.41396 15.1937 8.37603 15.1439 8.32361 15.1145L8.217 15.3044ZM14.8797 18.6517L14.7731 18.8416C14.8405 18.8795 14.923 18.8788 14.9897 18.8397C15.0565 18.8006 15.0975 18.729 15.0975 18.6517H14.8797ZM8.79507 15.2366L8.70758 15.0371C8.63193 15.0703 8.58156 15.1434 8.57751 15.2259C8.57346 15.3084 8.61643 15.3861 8.68846 15.4266L8.79507 15.2366ZM14.8797 12.5679H15.0975C15.0975 12.4943 15.0604 12.4257 14.9988 12.3855C14.9372 12.3453 14.8595 12.3388 14.7922 12.3684L14.8797 12.5679ZM15.1606 18.9526L8.32326 15.115L8.11004 15.4949L14.9474 19.3325L15.1606 18.9526ZM14.8362 12.3008V19.1425H15.2718V12.3008H14.8362ZM8.30272 15.4998L15.1415 12.5003L14.9665 12.1013L8.12773 15.1008L8.30272 15.4998ZM8.03225 15.1821L8.03153 15.1832L8.39748 15.4196L8.3982 15.4185L8.03225 15.1821ZM8.127 15.1019L8.12539 15.1026L8.30039 15.5016L8.30201 15.5009L8.127 15.1019ZM8.10628 15.4921L8.11039 15.4944L8.32361 15.1145L8.3195 15.1122L8.10628 15.4921ZM8.03402 15.1862L8.03367 15.1868L8.39963 15.4231L8.39998 15.4226L8.03402 15.1862ZM14.9863 18.4617L8.90169 15.0467L8.68846 15.4266L14.7731 18.8416L14.9863 18.4617ZM14.6618 12.5679V18.6517H15.0975V12.5679H14.6618ZM8.88257 15.4361L14.9672 12.7673L14.7922 12.3684L8.70758 15.0371L8.88257 15.4361Z" fill="currentColor" mask="url(#path-11-outside-4_559_115955)"/>
<mask id="path-13-outside-5_559_115955" maskUnits="userSpaceOnUse" x="14.0518" y="11.3013" width="9" height="9" fill="currentColor">
<rect fill="white" x="14.0518" y="11.3013" width="9" height="9"/>
<path fill-rule="evenodd" clip-rule="evenodd" d="M15.2291 18.6521L21.3137 15.237L15.2291 12.5683V18.6521ZM15.0518 12.3013L21.8944 15.3025L15.0518 19.143V12.3013Z"/>
</mask>
<path fill-rule="evenodd" clip-rule="evenodd" d="M15.2291 18.6521L21.3137 15.237L15.2291 12.5683V18.6521ZM15.0518 12.3013L21.8944 15.3025L15.0518 19.143V12.3013Z" fill="currentColor"/>
<path d="M21.3137 15.237L21.4203 15.427C21.4924 15.3865 21.5353 15.3088 21.5313 15.2263C21.5272 15.1438 21.4769 15.0707 21.4012 15.0375L21.3137 15.237ZM15.2291 18.6521H15.0113C15.0113 18.7294 15.0523 18.801 15.1191 18.8401C15.1858 18.8791 15.2683 18.8799 15.3357 18.842L15.2291 18.6521ZM15.2291 12.5683L15.3166 12.3688C15.2493 12.3392 15.1716 12.3457 15.11 12.3859C15.0484 12.4261 15.0113 12.4947 15.0113 12.5683H15.2291ZM21.8944 15.3025L22.001 15.4924C22.073 15.452 22.116 15.3743 22.1119 15.2918C22.1079 15.2093 22.0575 15.1362 21.9819 15.103L21.8944 15.3025ZM15.0518 12.3013L15.1393 12.1018C15.0719 12.0722 14.9942 12.0787 14.9326 12.1189C14.871 12.1591 14.8339 12.2277 14.8339 12.3013H15.0518ZM15.0518 19.143H14.8339C14.8339 19.2204 14.875 19.2919 14.9417 19.331C15.0085 19.3701 15.0909 19.3708 15.1584 19.333L15.0518 19.143ZM21.2071 15.0471L15.1225 18.4621L15.3357 18.842L21.4203 15.427L21.2071 15.0471ZM15.1416 12.7677L21.2262 15.4365L21.4012 15.0375L15.3166 12.3688L15.1416 12.7677ZM15.447 18.6521V12.5683H15.0113V18.6521H15.447ZM21.9819 15.103L15.1393 12.1018L14.9643 12.5008L21.8069 15.502L21.9819 15.103ZM15.1584 19.333L22.001 15.4924L21.7878 15.1125L14.9451 18.9531L15.1584 19.333ZM14.8339 12.3013V19.143H15.2696V12.3013H14.8339Z" fill="currentColor" mask="url(#path-13-outside-5_559_115955)"/>
<mask id="path-15-outside-6_559_115955" maskUnits="userSpaceOnUse" x="14.0518" y="3.71191" width="9" height="12" fill="currentColor">
<rect fill="white" x="14.0518" y="3.71191" width="9" height="12"/>
<path fill-rule="evenodd" clip-rule="evenodd" d="M15.0525 4.71191L15.0518 4.7131V12.3004L21.8931 15.3016L15.0525 4.71191ZM15.2291 12.1877L21.1354 14.7786L15.2291 5.63539V12.1877Z"/>
</mask>
<path fill-rule="evenodd" clip-rule="evenodd" d="M15.0525 4.71191L15.0518 4.7131V12.3004L21.8931 15.3016L15.0525 4.71191ZM15.2291 12.1877L21.1354 14.7786L15.2291 5.63539V12.1877Z" fill="currentColor"/>
<path d="M15.0525 4.71191L15.2355 4.59372C15.1954 4.53161 15.1265 4.49409 15.0525 4.49409C14.9786 4.49409 14.9097 4.53161 14.8696 4.59372L15.0525 4.71191ZM15.0518 4.7131L14.8688 4.59491C14.846 4.63013 14.8339 4.67117 14.8339 4.7131H15.0518ZM15.0518 12.3004H14.8339C14.8339 12.3868 14.8851 12.4651 14.9643 12.4998L15.0518 12.3004ZM21.8931 15.3016L21.8056 15.501C21.8936 15.5397 21.9966 15.516 22.0589 15.4428C22.1213 15.3696 22.1282 15.2641 22.0761 15.1834L21.8931 15.3016ZM21.1354 14.7786L21.0479 14.9781C21.1359 15.0167 21.2389 14.9931 21.3012 14.9199C21.3636 14.8466 21.3705 14.7412 21.3184 14.6605L21.1354 14.7786ZM15.2291 12.1877H15.0113C15.0113 12.2741 15.0624 12.3524 15.1416 12.3871L15.2291 12.1877ZM15.2291 5.63539L15.4121 5.5172C15.3597 5.43608 15.2601 5.39914 15.1675 5.42646C15.0749 5.45378 15.0113 5.53882 15.0113 5.63539H15.2291ZM14.8696 4.59372L14.8688 4.59491L15.2347 4.83129L15.2355 4.83011L14.8696 4.59372ZM14.8339 4.7131V12.3004H15.2696V4.7131H14.8339ZM14.9643 12.4998L21.8056 15.501L21.9806 15.1021L15.1393 12.1009L14.9643 12.4998ZM22.0761 15.1834L15.2355 4.59372L14.8696 4.83011L21.7101 15.4197L22.0761 15.1834ZM21.2229 14.5792L15.3166 11.9882L15.1416 12.3871L21.0479 14.9781L21.2229 14.5792ZM15.0462 5.75358L20.9524 14.8968L21.3184 14.6605L15.4121 5.5172L15.0462 5.75358ZM15.447 12.1877V5.63539H15.0113V12.1877H15.447Z" fill="currentColor" mask="url(#path-15-outside-6_559_115955)"/>
</svg>

<svg xmlns="http://www.w3.org/2000/svg" width="1em" height="1em" fill="none" viewBox="0 0 30 30"><path fill="currentColor" fill-rule="evenodd" d="M7.178 22.822a.938.938 0 0 0-1.326 0l-3.93 3.93v-5.19a.937.937 0 1 0-1.875 0v7.453c0 .518.42.938.937.938h7.453a.937.937 0 1 0 0-1.875h-5.19l3.931-3.93a.937.937 0 0 0 0-1.326ZM22.822 22.822a.938.938 0 0 1 1.326 0l3.93 3.93v-5.19a.938.938 0 0 1 1.875 0v7.453c0 .518-.42.938-.937.938h-7.453a.937.937 0 1 1 0-1.875h5.19l-3.931-3.93a.937.937 0 0 1 0-1.326ZM22.822 7.179a.938.938 0 0 0 1.326 0l3.93-3.93v5.189a.938.938 0 0 0 1.875 0V.985a.937.937 0 0 0-.937-.937h-7.453a.937.937 0 1 0 0 1.875h5.19l-3.931 3.93a.938.938 0 0 0 0 1.326ZM7.131 7.131a.937.937 0 0 1-1.326 0l-3.93-3.93v5.19A.937.937 0 1 1 0 8.39V.938C0 .42.42 0 .938 0H8.39a.938.938 0 0 1 0 1.875H3.2l3.931 3.93a.937.937 0 0 1 0 1.326Z" clip-rule="evenodd"/><mask id="a" width="9" height="11" x="14.052" y="15.34" fill="currentColor" maskUnits="userSpaceOnUse"><path fill="#fff" d="M14.052 15.34h9v11h-9z"/><path fill-rule="evenodd" d="m15.053 20.264 6.84-3.924-6.841 8.95v-5.025Zm5.51-2.76-5.334 3.06v3.918l5.333-6.977Z" clip-rule="evenodd"/></mask><path fill="currentColor" fill-rule="evenodd" d="m15.053 20.264 6.84-3.924-6.841 8.95v-5.025Zm5.51-2.76-5.334 3.06v3.918l5.333-6.977Z" clip-rule="evenodd"/><path fill="currentColor" d="m15.053 20.265-.109.189c.068.038.15.038.217 0l-.108-.19Zm0 0 .108-.19a.218.218 0 0 0-.217 0l.109.19Zm6.84-3.925.172.133a.218.218 0 0 0-.28-.322l.107.19Zm-6.841 8.95h-.218a.218.218 0 0 0 .39.132l-.172-.132Zm0-5.025-.109-.189a.218.218 0 0 0-.11.189h.219Zm.177.3-.108-.189a.218.218 0 0 0-.11.189h.218Zm5.333-3.06.173.132a.218.218 0 0 0-.281-.321l.108.189Zm-5.333 6.977h-.218a.218.218 0 0 0 .391.133l-.173-.133Zm-.068-4.406-.217.377.217-.377Zm6.623-3.925-6.84 3.925.217.378 6.84-3.925-.217-.378Zm-.065.057-6.84 8.95.346.264 6.84-8.95-.346-.264Zm-6.45 9.082v-5.025h-.435v5.025h.436Zm-.109-4.836h.001l-.217-.378.216.378Zm.178.3 5.333-3.06-.217-.378-5.333 3.06.216.378Zm.109 3.728v-3.917h-.436v3.917h.436Zm4.942-7.11-5.333 6.978.346.265 5.333-6.978-.346-.265Z" mask="url(#a)"/><mask id="b" width="9" height="11" x="7.215" y="15.346" fill="currentColor" maskUnits="userSpaceOnUse"><path fill="#fff" d="M7.215 15.346h9v11h-9z"/><path fill-rule="evenodd" d="m8.215 16.346 6.831 8.937v-5.018l-6.831-3.92Zm1.327 1.16 5.335 6.98v-3.92h-.002l-5.333-3.06Z" clip-rule="evenodd"/></mask><path fill="currentColor" fill-rule="evenodd" d="m8.215 16.346 6.831 8.937v-5.018l-6.831-3.92Zm1.327 1.16 5.335 6.98v-3.92h-.002l-5.333-3.06Z" clip-rule="evenodd"/><path fill="currentColor" d="m8.215 16.346.108-.19a.218.218 0 0 0-.281.322l.173-.132Zm6.831 8.937-.173.132a.218.218 0 0 0 .391-.132h-.218Zm0-5.018h.218a.218.218 0 0 0-.11-.189l-.108.19Zm-.168 4.221-.174.133a.218.218 0 0 0 .391-.133h-.218Zm-5.336-6.98.108-.19a.218.218 0 0 0-.281.322l.173-.133Zm5.335 3.06h.218a.218.218 0 0 0-.11-.188l-.107.189Zm-.002 0-.108.189.108-.19Zm-6.833-4.088 6.831 8.937.346-.264-6.831-8.938-.346.265Zm7.222 8.805v-5.018h-.436v5.018h.436Zm-.11-5.207-6.83-3.92-.218.379 6.832 3.92.217-.379Zm-.103 4.278-5.336-6.98-.346.264 5.335 6.98.347-.264Zm-.391-3.787v3.92h.435v-3.92h-.435Zm.107.188.003.001.215-.378-.002-.002-.216.379Zm-5.334-3.06 5.334 3.06.217-.378-5.334-3.06-.217.377Z" mask="url(#b)"/><mask id="c" width="9" height="12" x="7.215" y="3.713" fill="currentColor" maskUnits="userSpaceOnUse"><path fill="#fff" d="M7.215 3.713h9v12h-9z"/><path fill-rule="evenodd" d="M15.054 4.713v7.588l-6.84 3 6.84-10.588Zm-.174 7.475V5.636l-5.907 9.143 5.907-2.591Z" clip-rule="evenodd"/></mask><path fill="currentColor" fill-rule="evenodd" d="M15.054 4.713v7.588l-6.84 3 6.84-10.588Zm-.174 7.475V5.636l-5.907 9.143 5.907-2.591Z" clip-rule="evenodd"/><path fill="currentColor" d="M15.054 4.713h.218a.218.218 0 0 0-.4-.118l.182.118Zm0 7.588.088.2a.218.218 0 0 0 .13-.2h-.218Zm-6.84 3-.182-.118a.218.218 0 0 0 .27.317l-.087-.2Zm6.666-9.665h.218a.218.218 0 0 0-.401-.119l.183.119Zm0 6.552.087.2a.218.218 0 0 0 .13-.2h-.217Zm-5.907 2.59-.182-.117a.218.218 0 0 0 .27.317l-.088-.2Zm5.863-10.065v7.588h.436V4.713h-.436Zm.13 7.388-6.839 3 .175.4 6.84-3-.175-.4Zm-.095-7.506-6.84 10.588.367.236 6.839-10.587-.366-.237Zm-.21 1.04v6.553h.437V5.636h-.436Zm-5.505 9.262 5.907-9.143-.366-.237-5.906 9.144.365.236Zm5.636-2.909L8.886 14.58l.175.4 5.906-2.592-.175-.399Z" mask="url(#c)"/><mask id="d" width="9" height="9" x="7.213" y="11.301" fill="currentColor" maskUnits="userSpaceOnUse"><path fill="#fff" d="M7.213 11.301h9v9h-9z"/><path fill-rule="evenodd" d="m8.217 15.305 6.837 3.837v-6.841l-6.839 3-.002.001.004.002v.001Zm.578-.068 6.085 3.415v-6.084l-6.085 2.669Z" clip-rule="evenodd"/></mask><path fill="currentColor" fill-rule="evenodd" d="m8.217 15.305 6.837 3.837v-6.841l-6.839 3-.002.001.004.002v.001Zm.578-.068 6.085 3.415v-6.084l-6.085 2.669Z" clip-rule="evenodd"/><path fill="currentColor" d="m15.054 19.142-.107.19a.218.218 0 0 0 .325-.19h-.218Zm-6.837-3.837-.183-.118a.218.218 0 0 0 .076.308l.107-.19Zm6.837-3.004h.218a.218.218 0 0 0-.306-.2l.088.2Zm-6.839 3-.087-.2a.218.218 0 0 0-.096.081l.183.118Zm0 0 .087.2a.218.218 0 0 0 .095-.081l-.182-.119Zm-.002.001-.088-.2a.218.218 0 0 0-.019.39l.107-.19Zm.004.002.183.119a.218.218 0 0 0-.076-.309l-.107.19Zm6.663 3.348-.107.19a.218.218 0 0 0 .325-.19h-.218Zm-6.085-3.415-.087-.2a.218.218 0 0 0-.02.39l.107-.19Zm6.085-2.67h.217a.218.218 0 0 0-.305-.199l.088.2Zm.28 6.386-6.837-3.838-.213.38 6.837 3.838.214-.38Zm-.324-6.652v6.841h.436v-6.841h-.436ZM8.303 15.5l6.838-3-.175-.399-6.838 3 .175.399Zm-.27-.318-.001.001.365.237.001-.002-.366-.236Zm.094-.08h-.002l.175.4.002-.001-.175-.4Zm-.02.39.003.002.214-.38-.005-.002-.213.38Zm-.073-.306.366.237-.366-.237Zm6.952 3.276-6.084-3.415-.214.38 6.085 3.415.213-.38Zm-.324-5.894v6.084h.435v-6.084h-.435Zm-5.78 2.868 6.085-2.669-.175-.399-6.084 2.67.175.398Z" mask="url(#d)"/><mask id="e" width="9" height="9" x="14.052" y="11.301" fill="currentColor" maskUnits="userSpaceOnUse"><path fill="#fff" d="M14.052 11.301h9v9h-9z"/><path fill-rule="evenodd" d="m15.23 18.652 6.084-3.415-6.085-2.669v6.084Zm-.178-6.35 6.842 3-6.842 3.841v-6.842Z" clip-rule="evenodd"/></mask><path fill="currentColor" fill-rule="evenodd" d="m15.23 18.652 6.084-3.415-6.085-2.669v6.084Zm-.178-6.35 6.842 3-6.842 3.841v-6.842Z" clip-rule="evenodd"/><path fill="currentColor" d="m21.314 15.237.106.19a.218.218 0 0 0-.019-.39l-.087.2Zm-6.085 3.415h-.218a.218.218 0 0 0 .325.19l-.107-.19Zm0-6.084.088-.2a.218.218 0 0 0-.306.2h.218Zm6.665 2.735.107.19a.218.218 0 0 0-.02-.39l-.087.2ZM15.052 12.3l.087-.2a.218.218 0 0 0-.305.2h.218Zm0 6.842h-.218a.218.218 0 0 0 .324.19l-.106-.19Zm6.155-4.096-6.085 3.415.214.38 6.084-3.415-.213-.38Zm-6.065-2.28 6.084 2.67.175-.4-6.084-2.668-.175.399Zm.305 5.885v-6.084h-.436v6.084h.436Zm6.535-3.549-6.843-3.001-.175.399 6.843 3.001.175-.399Zm-6.824 4.23 6.843-3.84-.213-.38-6.843 3.84.213.38Zm-.324-7.032v6.842h.436v-6.842h-.436Z" mask="url(#e)"/><mask id="f" width="9" height="12" x="14.052" y="3.712" fill="currentColor" maskUnits="userSpaceOnUse"><path fill="#fff" d="M14.052 3.712h9v12h-9z"/><path fill-rule="evenodd" d="m15.053 4.712-.001.001V12.3l6.841 3.002-6.84-10.59Zm.176 7.476 5.906 2.59-5.906-9.143v6.553Z" clip-rule="evenodd"/></mask><path fill="currentColor" fill-rule="evenodd" d="m15.053 4.712-.001.001V12.3l6.841 3.002-6.84-10.59Zm.176 7.476 5.906 2.59-5.906-9.143v6.553Z" clip-rule="evenodd"/><path fill="currentColor" d="m15.053 4.712.182-.118a.218.218 0 0 0-.365 0l.183.118Zm-.001.001-.183-.118a.217.217 0 0 0-.035.118h.218Zm0 7.587h-.218c0 .087.051.165.13.2l.088-.2Zm6.841 3.002-.087.199a.218.218 0 0 0 .27-.318l-.183.119Zm-.758-.523-.087.2a.218.218 0 0 0 .27-.318l-.183.118Zm-5.906-2.591h-.218c0 .086.051.164.13.2l.088-.2Zm0-6.553.183-.118a.218.218 0 0 0-.4.118h.217Zm-.36-1.041.366.237-.365-.237Zm-.035.12V12.3h.436V4.713h-.436Zm.13 7.786 6.842 3.001.175-.399-6.842-3.001-.175.399Zm7.112 2.683-6.84-10.59-.366.237 6.84 10.59.366-.237Zm-.853-.604-5.906-2.59-.175.398 5.906 2.591.175-.399Zm-6.177-8.825 5.906 9.143.366-.236-5.906-9.144-.366.237Zm.401 6.434V5.635h-.436v6.553h.436Z" mask="url(#f)"/></svg>
